icon/lg/google-keep.svg

<svg width="256" height="352" xmlns="http://www.w3.org/2000/svg" preserveAspectRatio="xMidYMid"><path d="M232 352H24c-13.28 0-24-10.72-24-24V24C0 10.72 10.72 0 24 0h144l88 88v240c0 13.28-10.72 24-24 24Z" fill="#FFBA00"/><path fill="#FF9500" d="m168 0 88 88h-88z"/><path d="M156 236v20h-56v-20h56Zm-28.08-115.999.78.006c28.323.46 51.14 23.56 51.14 51.993 0 18.56-9.72 34.8-24.32 44h-55.2C85.68 206.8 76 190.56 76 172c0-28.72 23.28-52 52-52l-.08.001Z" fill="#FFF"/></svg>

<?xml version="1.0" encoding="UTF-8"?>
<svg viewBox="0 0 256 352" version="1.1" xmlns="http://www.w3.org/2000/svg" xmlns:xlink="http://www.w3.org/1999/xlink" preserveAspectRatio="xMidYMid" height="1em" width="1em">
  <g>
    <path d="M232,352 L24,352 C10.72,352 0,341.28 0,328 L0,24 C0,10.72 10.72,0 24,0 L168,0 L256,88 L256,328 C256,341.28 245.28,352 232,352 Z" fill="#FFBA00"/>
    <polygon fill="#FF9500" points="168 0 256 88 168 88"/>
    <path d="M156,236 L156,256 L100,256 L100,236 L156,236 Z M127.92,120.001 L128.69995,120.006966 C157.023272,120.466144 179.84,143.5672 179.84,172 C179.84,190.56 170.12,206.8 155.52,216 L155.52,216 L100.32,216 C85.68,206.8 76,190.56 76,172 C76,143.28 99.28,120 128,120 L127.92,120.001 Z" fill="#FFFFFF"/>
  </g>
</svg>
